images_sukapura_svg/cmd/32/reverseorder.svg

<svg height="32" viewBox="0 0 32 32" width="32" xmlns="http://www.w3.org/2000/svg" xmlns:xlink="http://www.w3.org/1999/xlink"><linearGradient id="a" gradientUnits="userSpaceOnUse" x1="-2" x2="-2" y1="56" y2="45"><stop offset="0" stop-color="#f5f5f5"/><stop offset="1" stop-color="#fff"/></linearGradient><linearGradient id="b" gradientUnits="userSpaceOnUse" x1="100" x2="100" y1="23" y2="11"><stop offset="0" stop-color="#0040dd"/><stop offset="1" stop-color="#0a84ff"/></linearGradient>



     /&amp;amp;gt;
 <g transform="matrix(1 0 0 -1 0 32)"><path d="m4 16c-.554 0-1 .446-1 1v11c0 .554.446 1 1 1h14c.554 0 1-.446 1-1v-11c0-.554-.446-1-1-1zm0 1h14v11h-14z" fill="#98989d"/><path d="m4 17h14v11h-14z" fill="url(#a)"/></g><g transform="matrix(1 0 0 -1 0 32)"><path d="m10.949219 3c-.5263 0-.949219.4229187-.949219.9492188v11.0507812 4.050781c0 .5263.422919.949219.949219.949219h9.050781 8.050781c.5263 0 .949219-.422919.949219-.949219v-11.050781-4.0507812c0-.5263-.422919-.9492188-.949219-.9492188h-9.050781zm.050781 1h17v15h-17z" fill="#e4b500"/><path d="m11 4h17v15h-17z" fill="#fc0"/><path d="m24.970703 17a1.0001 1.0001 0 0 0 -.582031.208984l-3.332031 2.570313a1.0001 1.0001 0 0 0 0 1.582031l3.332031 2.574219a1.0001 1.0001 0 0 0 1.611328-.791016v-.291015c.74287.398926 1.332031 1.048272 1.332031 2.001953 0 1.368816-1.048461 2.429687-2.332031 2.429687s-2.332031-1.060871-2.332031-2.429687a1.0001 1.0001 0 0 0 0-.002c-.001889-.998953-.821851-1.855684-1.837891-1.853469h-.002c-1.012818.002625-1.826189.857703-1.828078 1.853516a1.0001 1.0001 0 0 0 0 .002c0 .03008.0022.06732.0039.101562v.002c.02486 1.551106.624822 2.967497 1.585938 4.041016h7.460937c.526306-.000094.949225-.423013.949225-.949313v-4.050781-3.595703c-.829952-.744865-1.857421-1.274733-3-1.480469v-.923828a1.0001 1.0001 0 0 0 -1.029297-1z" fill="#fff" fill-opacity=".784314" transform="matrix(1 0 0 -1 0 32)"/></g><path d="m25.000047 18.000002v1.714844c2.761974 0 4.999953 2.300623 4.999953 5.140623 0 2.839999-2.237979 5.144531-4.999953 5.144531-2.733975 0-4.952047-2.258594-4.996047-5.058593-.0028-.02856-.004-.05724-.004-.08594.000896-.47224.372945-.854772.832024-.855468.460603-.0015.835032.38166.835928.855468 0 1.894 1.492018 3.429687 3.332001 3.429687s3.332-1.535687 3.332-3.429687-1.492017-3.42578-3.332-3.42578v1.714844l-3.332001-2.574219 3.332001-2.570312z" fill="url(#b)"/></svg>

<?xml version="1.0" encoding="UTF-8" standalone="no"?>
<svg
   xmlns:dc="http://purl.org/dc/elements/1.1/"
   xmlns:cc="http://creativecommons.org/ns#"
   xmlns:rdf="http://www.w3.org/1999/02/22-rdf-syntax-ns#"
   xmlns:svg="http://www.w3.org/2000/svg"
   xmlns="http://www.w3.org/2000/svg"
   xmlns:xlink="http://www.w3.org/1999/xlink"
   xmlns:sodipodi="http://sodipodi.sourceforge.net/DTD/sodipodi-0.dtd"
   xmlns:inkscape="http://www.inkscape.org/namespaces/inkscape"
   viewBox="0 0 32 32"
   version="1.1"
   id="svg12"
   sodipodi:docname="reverseorder.svg"
   inkscape:version="0.92.3 (unknown)"
   inkscape:export-filename="/home/rizmut/Dokumen/Rizmut/Github/libreoffice-style-sukapura/images_sukapura/cmd/32/reverseorder.png"
   inkscape:export-xdpi="96"
   inkscape:export-ydpi="96"
   width="32"
   height="32"><metadata
   id="metadata18">
  <rdf:RDF>
    <cc:Work
       rdf:about="">
      <dc:format>image/svg+xml</dc:format>
      <dc:type
         rdf:resource="http://purl.org/dc/dcmitype/StillImage" />
      <dc:title></dc:title>
    </cc:Work>
  </rdf:RDF>
</metadata>
<defs
   id="defs16">
  <linearGradient
     gradientTransform="translate(-12,28)"
     y2="2"
     y1="16"
     x2="10"
     x1="10"
     gradientUnits="userSpaceOnUse"
     id="linearGradient1639">
    <stop
       id="stop1633"
       stop-color="#f5f5f5"
       offset="0" />
    <stop
       id="stop1637"
       stop-color="#fff"
       offset="1" />
  </linearGradient>
  <linearGradient
     inkscape:collect="always"
     xlink:href="#linearGradient1639"
     id="linearGradient859"
     x1="10"
     y1="28"
     x2="10"
     y2="17"
     gradientUnits="userSpaceOnUse" />
  <linearGradient
     gradientTransform="translate(75,-7)"
     id="a-367"
     gradientUnits="userSpaceOnUse"
     x1="14"
     x2="13.79661"
     y1="22"
     y2="2.1355929">
    <stop
       offset="0"
       stop-color="#0040dd"
       id="stop2206" />
    <stop
       offset="1"
       stop-color="#0a84ff"
       id="stop2208" />
  </linearGradient>
  <linearGradient
     inkscape:collect="always"
     xlink:href="#a-367"
     id="linearGradient1636"
     x1="25"
     y1="30"
     x2="25"
     y2="18"
     gradientUnits="userSpaceOnUse" />
</defs>
<sodipodi:namedview
   pagecolor="#ffffff"
   bordercolor="#666666"
   borderopacity="1"
   objecttolerance="10"
   gridtolerance="10"
   guidetolerance="10"
   inkscape:pageopacity="0"
   inkscape:pageshadow="2"
   inkscape:window-width="1366"
   inkscape:window-height="706"
   id="namedview14"
   showgrid="true"
   inkscape:zoom="11.313708"
   inkscape:cx="13.272289"
   inkscape:cy="7.1705216"
   inkscape:window-x="0"
   inkscape:window-y="0"
   inkscape:window-maximized="1"
   inkscape:current-layer="svg12"
   inkscape:snap-global="true">
  <inkscape:grid
     type="xygrid"
     id="grid828"
     spacingx="0.5"
     spacingy="0.5"
     empspacing="2" />
</sodipodi:namedview>



     /&amp;gt;
 <g
   id="g1672">
  <g
     transform="matrix(1,0,0,-1,0,32)"
     id="g914">
    <path
       inkscape:connector-curvature="0"
       style="fill:#98989d;fill-opacity:1"
       d="m 4,16 c -0.554,0 -1,0.446 -1,1 v 11 c 0,0.554 0.446,1 1,1 h 14 c 0.554,0 1,-0.446 1,-1 V 17 c 0,-0.554 -0.446,-1 -1,-1 z m 0,1 H 18 V 28 H 4 Z"
       id="path4" />
    <path
       inkscape:connector-curvature="0"
       style="fill:url(#linearGradient859);fill-opacity:1"
       d="M 4,17 H 18 V 28 H 4 Z"
       id="path6-6" />
  </g>
  <g
     transform="matrix(1,0,0,-1,0,32)"
     id="g872">
    <path
       style="fill:#e4b500;fill-opacity:1"
       d="M 10.949219,3 C 10.422919,3 10,3.4229187 10,3.9492188 V 15 19.050781 C 10,19.577081 10.422919,20 10.949219,20 H 20 28.050781 C 28.577081,20 29,19.577081 29,19.050781 V 8 3.9492188 C 29,3.4229188 28.577081,3 28.050781,3 H 19 Z M 11,4 H 28 V 19 H 11 Z"
       id="path2-3"
       inkscape:connector-curvature="0" />
    <rect
       style="fill:#ffcc00;fill-opacity:1;stroke:none;stroke-opacity:1"
       id="rect864"
       width="17"
       height="15"
       x="11"
       y="4"
       ry="0" />
    <path
       style="fill:#ffffff;fill-opacity:0.78431373"
       d="m 24.970703,17 a 1.0001,1.0001 0 0 0 -0.582031,0.208984 l -3.332031,2.570313 a 1.0001,1.0001 0 0 0 0,1.582031 l 3.332031,2.574219 A 1.0001,1.0001 0 0 0 26,23.144531 v -0.291015 c 0.74287,0.398926 1.332031,1.048272 1.332031,2.001953 0,1.368816 -1.048461,2.429687 -2.332031,2.429687 -1.28357,0 -2.332031,-1.060871 -2.332031,-2.429687 a 1.0001,1.0001 0 0 0 0,-0.002 C 22.66608,23.854516 21.846118,22.997785 20.830078,23 h -0.002 C 19.81526,23.002625 19.001889,23.857703 19,24.853516 a 1.0001,1.0001 0 0 0 0,0.002 c 0,0.03008 0.0022,0.06732 0.0039,0.101562 0,0 0,0.002 0,0.002 0.02486,1.551106 0.624822,2.967497 1.585938,4.041016 h 7.460937 C 28.577081,29 29,28.577081 29,28.050781 V 24 20.404297 C 28.170048,19.659432 27.142579,19.129564 26,18.923828 V 18 a 1.0001,1.0001 0 0 0 -1.029297,-1 z"
       transform="matrix(1,0,0,-1,0,32)"
       id="path940"
       inkscape:connector-curvature="0" />
  </g>
  <path
     id="path8"
     d="m 25.000047,18.000002 v 1.714844 C 27.762021,19.714846 30,22.015469 30,24.855469 30,27.695468 27.762021,30 25.000047,30 22.266072,30 20.048,27.741406 20.004,24.941407 20.0012,24.912847 20,24.884167 20,24.855467 c 8.96e-4,-0.47224 0.372945,-0.854772 0.832024,-0.855468 0.460603,-0.0015 0.835032,0.38166 0.835928,0.855468 0,1.894 1.492018,3.429687 3.332001,3.429687 1.839983,0 3.332,-1.535687 3.332,-3.429687 0,-1.894 -1.492017,-3.42578 -3.332,-3.42578 v 1.714844 L 21.667952,20.570312 24.999953,18 Z"
     style="fill:url(#linearGradient1636);fill-opacity:1"
     inkscape:connector-curvature="0" />
</g>
</svg>
